meat/img/delivery.svg

<svg width="45" height="45" viewBox="0 0 45 45" fill="none" xmlns="http://www.w3.org/2000/svg">
<path d="M40 0.5H5C2.51472 0.5 0.5 2.51472 0.5 5V40C0.5 42.4853 2.51472 44.5 5 44.5H40C42.4853 44.5 44.5 42.4853 44.5 40V5C44.5 2.51472 42.4853 0.5 40 0.5Z" stroke="white"/>
<path d="M40 0.5H5C2.51472 0.5 0.5 2.51472 0.5 5V40C0.5 42.4853 2.51472 44.5 5 44.5H40C42.4853 44.5 44.5 42.4853 44.5 40V5C44.5 2.51472 42.4853 0.5 40 0.5Z" stroke="url(#paint0_linear)" stroke-opacity="0.1"/>
<path d="M10.75 19.5C11.2737 19.5 11.5 19.8225 11.5 20C11.5 20.1775 11.2737 20.5 10.75 20.5H3.25C2.72626 20.5 2.5 20.1775 2.5 20C2.5 19.8225 2.72626 19.5 3.25 19.5H10.75Z" fill="#6ACD69" stroke="#F997A9"/>
<path d="M5.33333 24.5H10.6667C10.9368 24.5 11.1625 24.5829 11.3093 24.693C11.4561 24.8031 11.5 24.9168 11.5 25C11.5 25.0832 11.4561 25.1969 11.3093 25.307C11.1625 25.4171 10.9368 25.5 10.6667 25.5H5.33333C5.06318 25.5 4.83753 25.4171 4.69067 25.307C4.54389 25.1969 4.5 25.0832 4.5 25C4.5 24.9168 4.54389 24.8031 4.69067 24.693C4.83753 24.5829 5.06318 24.5 5.33333 24.5Z" fill="#6ACD69" stroke="#F997A9"/>
<path d="M8.25 29.5H10.75C11.2737 29.5 11.5 29.8225 11.5 30C11.5 30.1775 11.2737 30.5 10.75 30.5H8.25C7.72626 30.5 7.5 30.1775 7.5 30C7.5 29.8225 7.72626 29.5 8.25 29.5Z" fill="#6ACD69" stroke="#F997A9"/>
<path d="M42.8344 28.8575L39.3343 22.6074C39.1243 22.23 38.744 22 38.3333 22H30.1666C29.5227 22 29 22.56 29 23.25V35.7499C29 36.44 29.5227 37 30.1666 37H41.8334C42.4773 37 43 36.44 43 35.7499V29.5C43 29.2725 42.944 29.05 42.8344 28.8575Z" fill="#ED3F5E"/>
<path d="M32.75 24.2856H37.1498L40.2248 29.4285H32.75V24.2856Z" fill="#212121"/>
<path d="M11.25 18H28.75C28.8878 18 29 18.1123 29 18.25V36H11.25C11.1123 36 11 35.8877 11 35.7499V18.25C11 18.1123 11.1122 18 11.25 18Z" stroke="#F997A9" stroke-width="2"/>
<path d="M36.5938 38.4285C38.009 38.4285 39.1562 37.2772 39.1562 35.857C39.1562 34.4369 38.009 33.2856 36.5938 33.2856C35.1785 33.2856 34.0312 34.4369 34.0312 35.857C34.0312 37.2772 35.1785 38.4285 36.5938 38.4285Z" fill="#212121"/>
<path d="M36.5938 39.7143C34.4746 39.7143 32.75 37.9837 32.75 35.8571C32.75 33.7306 34.4746 32 36.5938 32C38.7129 32 40.4375 33.7306 40.4375 35.8571C40.4375 37.9837 38.7129 39.7143 36.5938 39.7143ZM36.5938 34.5714C35.8891 34.5714 35.3125 35.15 35.3125 35.8571C35.3125 36.5643 35.8891 37.1429 36.5938 37.1429C37.2984 37.1429 37.875 36.5643 37.875 35.8571C37.875 35.15 37.2984 34.5714 36.5938 34.5714Z" fill="#F2F2F2"/>
<path d="M31 37H11.3126C10.588 37 10 36.44 10 35.7499V32H31V37Z" fill="#ED3F5E"/>
<path d="M18.6562 38.4285C20.0715 38.4285 21.2188 37.2772 21.2188 35.857C21.2188 34.4369 20.0715 33.2856 18.6562 33.2856C17.241 33.2856 16.0938 34.4369 16.0938 35.857C16.0938 37.2772 17.241 38.4285 18.6562 38.4285Z" fill="#212121"/>
<path d="M18.6562 39.7143C16.5371 39.7143 14.8125 37.9837 14.8125 35.8571C14.8125 33.7306 16.5371 32 18.6562 32C20.7754 32 22.5 33.7306 22.5 35.8571C22.5 37.9837 20.7754 39.7143 18.6562 39.7143ZM18.6562 34.5714C17.949 34.5714 17.375 35.15 17.375 35.8571C17.375 36.5643 17.949 37.1429 18.6562 37.1429C19.3635 37.1429 19.9375 36.5643 19.9375 35.8571C19.9375 35.15 19.3635 34.5714 18.6562 34.5714Z" fill="#F2F2F2"/>
<path d="M2.30432 9.05542H2.71813C3.07214 8.34741 3.35168 7.64062 3.55676 6.93505C3.76184 6.22705 3.91442 5.46411 4.01452 4.64624H7.13464V9.05542H7.84875V11.5603H6.75378V10.0002H3.39929V11.5603H2.30432V9.05542ZM4.9154 5.59106C4.83728 6.15014 4.70666 6.74218 4.52355 7.36718C4.34289 7.99218 4.13903 8.55493 3.91198 9.05542H6.00305V5.59106H4.9154ZM13.436 7.31591C13.436 8.20214 13.2163 8.8833 12.7768 9.35937C12.3374 9.83545 11.7075 10.0734 10.8872 10.0734C10.0668 10.0734 9.43698 9.83545 8.99753 9.35937C8.55808 8.8833 8.33835 8.1997 8.33835 7.30859C8.33835 6.41748 8.55808 5.73754 8.99753 5.26879C9.43942 4.7976 10.0717 4.56201 10.8945 4.56201C11.7172 4.56201 12.3459 4.79882 12.7805 5.27246C13.2175 5.74609 13.436 6.42724 13.436 7.31591ZM9.52854 7.31591C9.52854 7.91406 9.64206 8.3645 9.86911 8.66723C10.0961 8.96997 10.4355 9.12133 10.8872 9.12133C11.7929 9.12133 12.2458 8.51953 12.2458 7.31591C12.2458 6.10986 11.7954 5.50683 10.8945 5.50683C10.4428 5.50683 10.1022 5.65942 9.87277 5.9646C9.64328 6.26733 9.52854 6.71777 9.52854 7.31591ZM16.7198 5.51416C16.2925 5.51416 15.9617 5.67529 15.7273 5.99755C15.493 6.31738 15.3758 6.76416 15.3758 7.33789C15.3758 8.53173 15.8238 9.12866 16.7198 9.12866C17.0958 9.12866 17.5511 9.03466 18.0857 8.84668V9.79882C17.6463 9.98193 17.1556 10.0734 16.6136 10.0734C15.8348 10.0734 15.2391 9.83789 14.8265 9.3667C14.4139 8.89306 14.2076 8.21435 14.2076 7.33056C14.2076 6.77392 14.3089 6.28686 14.5115 5.86938C14.7142 5.44946 15.0047 5.12841 15.3831 4.90625C15.764 4.68164 16.2095 4.56933 16.7198 4.56933C17.2398 4.56933 17.7623 4.69506 18.2872 4.94653L17.9209 5.86938C17.7208 5.77417 17.5193 5.69116 17.3167 5.62036C17.1141 5.54956 16.9151 5.51416 16.7198 5.51416ZM21.1938 10.0002H20.0585V5.59106H18.6046V4.64624H22.6476V5.59106H21.1938V10.0002ZM26.6492 10.0002L26.261 8.72583H24.3091L23.9209 10.0002H22.6978L24.5874 4.62426H25.9753L27.8723 10.0002H26.6492ZM25.99 7.77368C25.6311 6.61889 25.4285 5.96582 25.3821 5.81445C25.3381 5.66308 25.3064 5.54345 25.2869 5.45556C25.2063 5.76806 24.9756 6.54077 24.5947 7.77368H25.99ZM28.4498 4.64624H30.1161C30.8753 4.64624 31.4259 4.75488 31.7677 4.97216C32.1119 5.18701 32.284 5.53003 32.284 6.00122C32.284 6.32104 32.2083 6.58349 32.057 6.78857C31.9081 6.99365 31.7091 7.11694 31.4601 7.15844V7.19506C31.7994 7.27075 32.0436 7.41235 32.1925 7.61987C32.3438 7.82739 32.4195 8.10327 32.4195 8.44751C32.4195 8.93579 32.2425 9.31665 31.8885 9.59008C31.537 9.86352 31.0584 10.0002 30.453 10.0002H28.4498V4.64624ZM29.5851 6.7666H30.2442C30.5519 6.7666 30.774 6.71899 30.9107 6.62378C31.0499 6.52856 31.1195 6.37109 31.1195 6.15136C31.1195 5.94628 31.0438 5.7998 30.8924 5.71191C30.7435 5.62158 30.5067 5.57641 30.182 5.57641H29.5851V6.7666ZM29.5851 7.66748V9.06274H30.3248C30.6373 9.06274 30.868 9.00293 31.0169 8.8833C31.1659 8.76367 31.2403 8.58056 31.2403 8.33398C31.2403 7.88964 30.9229 7.66748 30.2882 7.66748H29.5851ZM37.7541 10.0002H36.465L34.5241 7.28662V10.0002H33.3889V4.64624H34.5241V7.23901L36.4431 4.64624H37.6516L35.6997 7.21704L37.7541 10.0002ZM41.6055 10.0002L41.2173 8.72583H39.2654L38.8772 10.0002H37.6541L39.5437 4.62426H40.9317L42.8287 10.0002H41.6055ZM40.9463 7.77368C40.5874 6.61889 40.3848 5.96582 40.3384 5.81445C40.2945 5.66308 40.2627 5.54345 40.2432 5.45556C40.1626 5.76806 39.9319 6.54077 39.5511 7.77368H40.9463Z" fill="#F2F2F2"/>
<path d="M17.1076 21.5999V29.9999H14.7316V23.4359H13.1716V21.5999H17.1076Z" fill="white"/>
<path d="M27.1789 24.3359V25.4999H18.6589V24.3359H23.9869C24.0909 24.2479 24.1429 24.1479 24.1429 24.0359C24.1429 23.8119 24.0349 23.6319 23.8189 23.4959C23.6029 23.3519 23.2629 23.2799 22.7989 23.2799C22.0069 23.2799 21.1949 23.4279 20.3629 23.7239L19.8349 21.9719C20.8109 21.6039 21.7709 21.4199 22.7149 21.4199C23.4669 21.4199 24.1269 21.5319 24.6949 21.7559C25.2709 21.9799 25.7149 22.2999 26.0269 22.7159C26.3389 23.1239 26.4949 23.6039 26.4949 24.1559C26.4949 24.2359 26.4909 24.2959 26.4829 24.3359H27.1789ZM18.6589 25.9919H27.1789V27.1559H22.1269C21.8629 27.2839 21.7309 27.4439 21.7309 27.6359C21.7309 28.0919 22.1869 28.3199 23.0989 28.3199C23.5869 28.3199 24.0869 28.2639 24.5989 28.1519C25.1109 28.0399 25.5669 27.8879 25.9669 27.6959L26.5549 29.4479C25.9949 29.6879 25.4229 29.8719 24.8389 29.9999C24.2629 30.1199 23.7029 30.1799 23.1589 30.1799C22.3989 30.1799 21.7349 30.0719 21.1669 29.8559C20.5989 29.6319 20.1589 29.3159 19.8469 28.9079C19.5349 28.4999 19.3789 28.0159 19.3789 27.4559C19.3789 27.3839 19.3869 27.2839 19.4029 27.1559H18.6589V25.9919Z" fill="white"/>
<defs>
<linearGradient id="paint0_linear" x1="22.5" y1="44.5" x2="22.5" y2="0.500001" gradientUnits="userSpaceOnUse">
<stop stop-color="#015423"/>
<stop offset="1" stop-color="#6ED26C"/>
</linearGradient>
</defs>
</svg>

<svg width="45" height="45" fill="none" xmlns="http://www.w3.org/2000/svg"><path d="M40 .5H5A4.5 4.5 0 0 0 .5 5v35A4.5 4.5 0 0 0 5 44.5h35a4.5 4.5 0 0 0 4.5-4.5V5A4.5 4.5 0 0 0 40 .5z" stroke="#fff"/><path d="M40 .5H5A4.5 4.5 0 0 0 .5 5v35A4.5 4.5 0 0 0 5 44.5h35a4.5 4.5 0 0 0 4.5-4.5V5A4.5 4.5 0 0 0 40 .5z" stroke="url(#paint0_linear)" stroke-opacity=".1"/><path d="M10.75 19.5c.524 0 .75.323.75.5s-.226.5-.75.5h-7.5c-.524 0-.75-.323-.75-.5s.226-.5.75-.5h7.5zM5.333 24.5h5.334c.27 0 .495.083.642.193.147.11.191.224.191.307 0 .083-.044.197-.19.307-.148.11-.373.193-.643.193H5.333c-.27 0-.495-.083-.642-.193-.147-.11-.191-.224-.191-.307 0-.083.044-.197.19-.307.148-.11.373-.193.643-.193zM8.25 29.5h2.5c.524 0 .75.323.75.5s-.226.5-.75.5h-2.5c-.524 0-.75-.323-.75-.5s.226-.5.75-.5z" fill="#6ACD69" stroke="#F997A9"/><path d="M42.834 28.858l-3.5-6.25a1.15 1.15 0 0 0-1-.608h-8.167c-.644 0-1.167.56-1.167 1.25v12.5c0 .69.523 1.25 1.167 1.25h11.666c.644 0 1.167-.56 1.167-1.25V29.5c0-.227-.056-.45-.166-.642z" fill="#ED3F5E"/><path d="M32.75 24.286h4.4l3.075 5.142H32.75v-5.142z" fill="#212121"/><path d="M11.25 18h17.5a.25.25 0 0 1 .25.25V36H11.25a.25.25 0 0 1-.25-.25v-17.5a.25.25 0 0 1 .25-.25z" stroke="#F997A9" stroke-width="2"/><path d="M36.594 38.428a2.567 2.567 0 0 0 2.562-2.571 2.567 2.567 0 0 0-2.562-2.571 2.567 2.567 0 0 0-2.563 2.571 2.567 2.567 0 0 0 2.563 2.572z" fill="#212121"/><path d="M36.594 39.714a3.855 3.855 0 0 1-3.844-3.857A3.855 3.855 0 0 1 36.594 32c2.119 0 3.843 1.73 3.843 3.857a3.855 3.855 0 0 1-3.843 3.857zm0-5.143c-.705 0-1.282.579-1.282 1.286 0 .707.577 1.286 1.282 1.286.704 0 1.281-.579 1.281-1.286 0-.707-.577-1.286-1.281-1.286z" fill="#F2F2F2"/><path d="M31 37H11.313C10.588 37 10 36.44 10 35.75V32h21v5z" fill="#ED3F5E"/><path d="M18.656 38.428a2.567 2.567 0 0 0 2.563-2.571 2.567 2.567 0 0 0-2.563-2.571 2.567 2.567 0 0 0-2.562 2.571 2.567 2.567 0 0 0 2.562 2.572z" fill="#212121"/><path d="M18.656 39.714a3.855 3.855 0 0 1-3.843-3.857A3.855 3.855 0 0 1 18.655 32c2.12 0 3.844 1.73 3.844 3.857a3.855 3.855 0 0 1-3.844 3.857zm0-5.143a1.286 1.286 0 0 0 0 2.572 1.286 1.286 0 0 0 0-2.572zM2.304 9.055h.414c.354-.708.634-1.414.839-2.12a14.6 14.6 0 0 0 .458-2.289h3.12v4.41h.714v2.504H6.754V10H3.399v1.56H2.304V9.055zm2.611-3.464c-.078.56-.208 1.151-.391 1.776-.181.625-.385 1.188-.612 1.688h2.091V5.591H4.915zm8.521 1.725c0 .886-.22 1.567-.66 2.043-.439.476-1.069.714-1.889.714-.82 0-1.45-.238-1.89-.714-.439-.476-.659-1.16-.659-2.05 0-.892.22-1.571.66-2.04.441-.471 1.074-.707 1.897-.707.822 0 1.45.237 1.886.71.436.474.655 1.155.655 2.044zm-3.907 0c0 .598.113 1.048.34 1.351.227.303.566.454 1.018.454.906 0 1.359-.601 1.359-1.805 0-1.206-.45-1.81-1.351-1.81-.452 0-.793.153-1.022.459-.23.302-.344.753-.344 1.35zm7.19-1.802c-.427 0-.757.161-.992.484-.234.32-.351.766-.351 1.34 0 1.194.448 1.79 1.344 1.79.376 0 .831-.093 1.366-.281v.952c-.44.183-.93.274-1.472.274-.78 0-1.375-.235-1.788-.706-.412-.474-.618-1.153-.618-2.036 0-.557.1-1.044.303-1.462.203-.42.494-.74.872-.963.381-.224.826-.337 1.337-.337.52 0 1.042.126 1.567.378l-.366.922a6.056 6.056 0 0 0-.604-.249 1.802 1.802 0 0 0-.597-.106zM21.195 10h-1.136V5.591h-1.453v-.945h4.043v.945h-1.454v4.41zm5.455 0l-.388-1.274h-1.952L23.921 10h-1.223l1.89-5.376h1.387L27.872 10H26.65zm-.659-2.226l-.608-1.96a6.091 6.091 0 0 1-.095-.358c-.08.312-.311 1.085-.692 2.318h1.395zm2.46-3.128h1.666c.76 0 1.31.109 1.652.326.344.215.516.558.516 1.03 0 .319-.076.581-.227.787a.893.893 0 0 1-.597.37v.036c.34.076.584.217.733.425.15.207.227.483.227.828 0 .488-.178.869-.532 1.142-.351.274-.83.41-1.435.41H28.45V4.646zm1.135 2.12h.66c.307 0 .529-.047.666-.142.139-.095.208-.253.208-.473 0-.205-.075-.351-.227-.44-.148-.09-.385-.135-.71-.135h-.597v1.19zm0 .901v1.396h.74c.312 0 .543-.06.692-.18.149-.12.223-.302.223-.549 0-.444-.317-.667-.952-.667h-.703zM37.755 10h-1.29l-1.94-2.713V10h-1.136V4.646h1.135V7.24l1.92-2.593h1.208L35.7 7.217 37.754 10zm3.85 0l-.388-1.274h-1.952L38.877 10h-1.223l1.89-5.376h1.388L42.829 10h-1.224zm-.659-2.226l-.608-1.96a6.172 6.172 0 0 1-.095-.358c-.08.312-.311 1.085-.692 2.318h1.395z" fill="#F2F2F2"/><path d="M17.108 21.6V30h-2.376v-6.564h-1.56V21.6h3.936zM27.179 24.336V25.5h-8.52v-1.164h5.328c.104-.088.156-.188.156-.3 0-.224-.108-.404-.324-.54-.216-.144-.556-.216-1.02-.216-.792 0-1.604.148-2.436.444l-.528-1.752c.976-.368 1.936-.552 2.88-.552.752 0 1.412.112 1.98.336.576.224 1.02.544 1.332.96.312.408.468.888.468 1.44 0 .08-.004.14-.012.18h.696zm-8.52 1.656h8.52v1.164h-5.052c-.264.128-.396.288-.396.48 0 .456.456.684 1.368.684.488 0 .988-.056 1.5-.168a6.237 6.237 0 0 0 1.368-.456l.588 1.752c-.56.24-1.132.424-1.716.552-.576.12-1.136.18-1.68.18-.76 0-1.424-.108-1.992-.324-.568-.224-1.008-.54-1.32-.948-.312-.408-.468-.892-.468-1.452 0-.072.008-.172.024-.3h-.744v-1.164z" fill="#fff"/><defs><linearGradient id="paint0_linear" x1="22.5" y1="44.5" x2="22.5" y2=".5" gradientUnits="userSpaceOnUse"><stop stop-color="#015423"/><stop offset="1" stop-color="#6ED26C"/></linearGradient></defs></svg>
